icons/relative-to-scene-elevation-24.svg

<svg xmlns="http://www.w3.org/2000/svg" viewBox="0 0 24 24"><path fill="none" d="M0 0h24v24H0z"/><path d="M9.5 7.9a2.4 2.4 0 1 0-2.4-2.4 2.403 2.403 0 0 0 2.4 2.4zm0-3.9A1.5 1.5 0 1 1 8 5.5 1.502 1.502 0 0 1 9.5 4zm.5 7H9V9h1zm-1 1h1v2H9zm12 10V12h-1v-2h-1V9h-1v1h-2V8h-3v2h-1v5H8v7H2v-2h2v-1H2v-2h2v-1H2v-2h2v-1H2v-2h2v-1H2V8h2V7H2V5h2V4H2V2H1v21h22v-1zm-2-11v1h-2v-1zm-5-2h1v1h-1zM9 22v-6h3v6zm4 0V11h3v11zm4 0v-9h3v9z"/></svg>

<svg id="icons" xmlns="http://www.w3.org/2000/svg" viewBox="0 0 24 24"><defs><style>.cls-1{fill:none;}</style></defs><rect class="cls-1" width="24" height="24"/><path d="M9.5,7.9A2.4,2.4,0,1,0,7.1,5.5,2.40255,2.40255,0,0,0,9.5,7.9ZM9.5,4A1.5,1.5,0,1,1,8,5.5,1.50164,1.50164,0,0,1,9.5,4Zm.5,7H9V9h1ZM9,12h1v2H9ZM21,22V12H20V10H19V9H18v1H16V8H13v2H12v5H8v7H2V20H4V19H2V17H4V16H2V14H4V13H2V11H4V10H2V8H4V7H2V5H4V4H2V2H1V23H23V22ZM19,11v1H17V11ZM14,9h1v1H14ZM9,22V16h3v6Zm4,0V11h3V22Zm4,0V13h3v9Z"/></svg>
